icons/svg/lan-pending.svg

<svg xmlns="http://www.w3.org/2000/svg" version="1.1" baseProfile="full" width="24" height="24" viewBox="0 0 24.00 24.00" xml:space="preserve"><path fill="#000" fill-opacity="1" stroke-width="1.333" stroke-linejoin="miter" d="M4 1c-1.108 0-2 .892-2 2v4c0 1.108.892 2 2 2H1v2h12V9h-3c1.108 0 2-.892 2-2V3c0-1.108-.892-2-2-2H4zm0 2h6v4H4V3zm-1 9v2h2v-2H3zm11 1c-1.108 0-2 .892-2 2v4c0 1.108.892 2 2 2h-3v2h12v-2h-3c1.108 0 2-.892 2-2v-4c0-1.108-.892-2-2-2h-6zM3 15v2h2v-2H3zm11 0h6v4h-6v-4zM3 18v2h2v-2H3zm3 0v2h2v-2H6zm3 0v2h2v-2H9z"/></svg>

﻿<?xml version="1.0" encoding="utf-8"?>
<!DOCTYPE svg PUBLIC "-//W3C//DTD SVG 1.1//EN" "http://www.w3.org/Graphics/SVG/1.1/DTD/svg11.dtd">
<svg xmlns="http://www.w3.org/2000/svg" xmlns:xlink="http://www.w3.org/1999/xlink" version="1.1" baseProfile="full" width="24" height="24" viewBox="0 0 24.00 24.00" enable-background="new 0 0 24.00 24.00" xml:space="preserve">
	<path fill="#000000" fill-opacity="1" stroke-width="1.33333" stroke-linejoin="miter" d="M 4,1C 2.892,1 2,1.892 2,3L 2,7C 2,8.108 2.892,9 4,9L 1,9L 1,11L 13,11L 13,9L 10,9C 11.108,9 12,8.108 12,7L 12,3C 12,1.892 11.108,1 10,1L 4,1 Z M 4,3L 10,3L 10,7L 4,7L 4,3 Z M 3,12L 3,14L 5,14L 5,12L 3,12 Z M 14,13C 12.892,13 12,13.892 12,15L 12,19C 12,20.108 12.892,21 14,21L 11,21L 11,23L 23,23L 23,21L 20,21C 21.108,21 22,20.108 22,19L 22,15C 22,13.892 21.108,13 20,13L 14,13 Z M 3,15L 3,17L 5,17L 5,15L 3,15 Z M 14,15L 20,15L 20,19L 14,19L 14,15 Z M 3,18L 3,20L 5,20L 5,18L 3,18 Z M 6,18L 6,20L 8,20L 8,18L 6,18 Z M 9,18L 9,20L 11,20L 11,18L 9,18 Z "/>
</svg>
